test2.cube.CUBE
#Created by: Adobe Photoshop Export Color Lookup Plugin
TITLE "test2"
#LUT size
LUT_3D_SIZE 32
#data domain
DOMAIN_MIN 0.0 0.0 0.0
DOMAIN_MAX 1.0 1.0 1.0
#LUT data points
0.000000 0.000000 0.000000
0.023987 0.008423 0.009949
0.048859 0.016998 0.019470
0.074615 0.025818 0.028503
0.101227 0.034851 0.037170
0.128693 0.044067 0.045349
0.157013 0.053558 0.053040
0.186005 0.063232 0.060303
0.215698 0.073151 0.067108
0.245972 0.083344 0.073456
0.276733 0.093689 0.079407
0.307983 0.104309 0.084930
0.339569 0.115143 0.090088
0.371338 0.126129 0.094849
0.403290 0.137360 0.099274
0.435272 0.148773 0.103333
0.467255 0.160309 0.107117
0.499146 0.172089 0.110565
0.530853 0.183960 0.113739
0.562225 0.195923 0.116699
0.593292 0.208038 0.119385
0.623901 0.220276 0.121857
0.654053 0.232574 0.124084
0.683746 0.244965 0.126190
0.712860 0.257385 0.128052
0.741058 0.269836 0.129791
0.767944 0.282043 0.131256
0.794342 0.294220 0.132538
0.820251 0.306458 0.133545
0.845795 0.318787 0.134277
0.870880 0.331207 0.134827
0.895538 0.343658 0.135040
0.014954 0.023956 0.015015
0.028473 0.028442 0.017487
0.051697 0.031250 0.023651
0.076782 0.036346 0.031219
0.103027 0.042999 0.039063
0.130219 0.050659 0.046753
0.158325 0.058990 0.054169
0.187195 0.067902 0.061157
0.216766 0.077271 0.067841
0.246948 0.086945 0.074066
0.277618 0.096954 0.079926
0.308807 0.107239 0.085358
0.340240 0.117798 0.090485
0.372070 0.128632 0.095154
0.403900 0.139648 0.099548
0.435852 0.150848 0.103607
0.467834 0.162323 0.107361
0.499634 0.173920 0.110809
0.531250 0.185669 0.113983
0.562622 0.197571 0.116882
0.593658 0.209625 0.119598
0.624268 0.221771 0.122040
0.654419 0.234009 0.124298
0.684021 0.246307 0.126343
0.713074 0.258636 0.128235
0.741272 0.271088 0.129944
0.768036 0.283203 0.131439
0.794464 0.295380 0.132690
0.820435 0.307587 0.133698
0.845917 0.319855 0.134460
0.870972 0.332153 0.134949
0.895599 0.344574 0.135162
0.030579 0.048889 0.029419
0.038757 0.051483 0.030518
0.058746 0.058105 0.034180
0.082489 0.060638 0.039124
0.108032 0.064453 0.045074
0.134735 0.069550 0.051422
0.162445 0.075714 0.057892
0.191010 0.082794 0.064240
0.220215 0.090515 0.070343
0.250183 0.098938 0.076202
0.280640 0.107910 0.081757
0.311615 0.117249 0.086975
0.342834 0.127045 0.091858
0.374390 0.137177 0.096436
0.406128 0.147614 0.100647
0.437927 0.158356 0.104614
0.469696 0.169312 0.108276
0.501343 0.180511 0.111664
0.532867 0.191925 0.114777
0.564056 0.203461 0.117676
0.594971 0.215179 0.120300
0.625427 0.227020 0.122742
0.655487 0.239044 0.124969
0.685028 0.251038 0.127014
0.713959 0.263214 0.128906
0.741852 0.275421 0.130585
0.768616 0.287262 0.132050
0.794952 0.299255 0.133270
0.820831 0.311310 0.134277
0.846313 0.323425 0.135010
0.871307 0.335632 0.135498
0.895935 0.347900 0.135681
0.046936 0.074829 0.043152
0.052521 0.076599 0.043793
0.068726 0.081818 0.046082
0.090881 0.089172 0.049957
0.115387 0.091766 0.054108
0.141541 0.095276 0.058899
0.168793 0.099762 0.064087
0.196930 0.105133 0.069458
0.225861 0.111298 0.074799
0.255493 0.118225 0.079987
0.285675 0.125854 0.085022
0.316284 0.134033 0.089844
0.347290 0.142731 0.094391
0.378510 0.151855 0.098694
0.409943 0.161407 0.102722
0.441437 0.171295 0.106476
0.473022 0.181610 0.110016
0.504456 0.192139 0.113251
0.535645 0.202881 0.116302
0.566650 0.213898 0.119080
0.597351 0.225098 0.121674
0.627594 0.236450 0.124023
0.657410 0.247986 0.126221
0.686737 0.259644 0.128204
0.715515 0.271393 0.130096
0.742920 0.283081 0.131744
0.769562 0.294647 0.133179
0.795807 0.306305 0.134369
0.821625 0.318085 0.135315
0.847046 0.329956 0.136017
0.871948 0.341949 0.136475
0.896484 0.353943 0.136627
0.064026 0.101837 0.056152
0.068268 0.103210 0.056549
0.081543 0.107330 0.058136
0.101318 0.113708 0.060913
0.124908 0.121582 0.064819
0.150208 0.124329 0.068237
0.176880 0.127777 0.072235
0.204651 0.132019 0.076477
0.233276 0.137024 0.080902
0.262512 0.142731 0.085297
0.292328 0.149078 0.089722
0.322662 0.156097 0.093994
0.353302 0.163666 0.098114
0.384186 0.171753 0.102020
0.415253 0.180328 0.105713
0.446472 0.189270 0.109283
0.477661 0.198669 0.112579
0.508728 0.208374 0.115631
0.539673 0.218414 0.118530
0.570313 0.228699 0.121216
0.600708 0.239258 0.123718
0.630646 0.249939 0.126007
0.660187 0.260925 0.128143
0.689240 0.271973 0.130096
0.717438 0.283203 0.131866
0.744415 0.294250 0.133484
0.770966 0.305328 0.134857
0.797089 0.316589 0.135956
0.822784 0.328003 0.136871
0.848083 0.339478 0.137512
0.872894 0.351105 0.137909
0.897308 0.362854 0.138062
0.081940 0.129883 0.068420
0.085266 0.130920 0.068726
0.096405 0.134369 0.069885
0.113983 0.139923 0.071930
0.135864 0.147003 0.074921
0.160645 0.155212 0.078735
0.186615 0.158112 0.081604
0.213867 0.161652 0.084839
0.242004 0.165802 0.088348
0.270874 0.170624 0.091980
0.300354 0.176025 0.095673
0.330292 0.182037 0.099335
0.360565 0.188629 0.102936
0.391083 0.195709 0.106445
0.421844 0.203308 0.109772
0.452606 0.211334 0.112976
0.483398 0.219818 0.116028
0.514191 0.228699 0.118896
0.544647 0.237885 0.121582
0.574951 0.247375 0.124084
0.604950 0.257111 0.126465
0.634613 0.267181 0.128662
0.663788 0.277435 0.130707
0.692383 0.287872 0.132629
0.719696 0.298218 0.134338
0.746429 0.308594 0.135864
0.772827 0.319214 0.137115
0.798767 0.329987 0.138153
0.824310 0.340912 0.138977
0.849457 0.351959 0.139557
0.874146 0.363190 0.139893
0.898468 0.374481 0.139954
0.100586 0.158936 0.080017
0.103394 0.159790 0.080261
0.112885 0.162689 0.081116
0.128540 0.167572 0.082703
0.148743 0.173950 0.085022
0.172180 0.181458 0.088104
0.197906 0.189941 0.091858
0.224426 0.192993 0.094238
0.252075 0.196655 0.096893
0.280518 0.200775 0.099762
0.309570 0.205475 0.102753
0.339081 0.210693 0.105774
0.368958 0.216461 0.108826
0.399139 0.222748 0.111847
0.429413 0.229462 0.114777
0.459808 0.236664 0.117645
0.490204 0.244293 0.120392
0.520477 0.252258 0.123016
0.550568 0.260651 0.125458
0.580475 0.269348 0.127838
0.609985 0.278290 0.130035
0.639252 0.287598 0.132111
0.667969 0.297089 0.134125
0.695526 0.306671 0.135895
0.722382 0.316223 0.137451
0.748932 0.326019 0.138855
0.775085 0.335999 0.140015
0.800842 0.346222 0.140991
0.826202 0.356598 0.141693
0.851135 0.367188 0.142181
0.875732 0.377869 0.142426
0.899872 0.388763 0.142365
0.119995 0.188873 0.090942
0.122406 0.189606 0.091125
0.130707 0.192139 0.091797
0.144623 0.196381 0.093079
0.163239 0.202148 0.094971
0.185303 0.209076 0.097473
0.209869 0.216949 0.100616
0.236359 0.225616 0.104370
0.263336 0.228821 0.106262
0.291168 0.232483 0.108429
0.319733 0.236633 0.110779
0.348816 0.241272 0.113220
0.378326 0.246368 0.115753
0.408020 0.251953 0.118286
0.437897 0.257996 0.120789
0.467804 0.264374 0.123260
0.497772 0.271271 0.125671
0.527588 0.278503 0.128021
0.557220 0.286072 0.130280
0.586639 0.293976 0.132416
0.615753 0.302185 0.134460
0.644409 0.310730 0.136414
0.671906 0.319275 0.138245
0.698914 0.327942 0.139832
0.725525 0.336884 0.141296
0.751831 0.346008 0.142517
0.777771 0.355408 0.143585
0.803253 0.365051 0.144409
0.828461 0.374878 0.144989
0.853210 0.384857 0.145325
0.877533 0.395050 0.145477
0.901489 0.405426 0.145508
0.140106 0.219696 0.101257
0.142242 0.220306 0.101410
0.149506 0.222443 0.101990
0.162109 0.226288 0.103027
0.179169 0.231476 0.104584
0.199860 0.237823 0.106720
0.223267 0.245148 0.109375
0.248718 0.253235 0.112610
0.275696 0.261963 0.116364
0.302917 0.265259 0.117889
0.330902 0.268982 0.119659
0.359497 0.273163 0.121552
0.388458 0.277740 0.123535
0.417664 0.282776 0.125580
0.447052 0.288116 0.127686
0.476471 0.293915 0.129852
0.505951 0.300049 0.131897
0.535309 0.306610 0.133972
0.564453 0.313507 0.135986
0.593353 0.320679 0.137939
0.621735 0.328217 0.139771
0.649078 0.335693 0.141510
0.676086 0.343414 0.143127
0.702759 0.351440 0.144562
0.729126 0.359711 0.145813
0.755127 0.368256 0.146912
0.780823 0.377075 0.147797
0.806122 0.386139 0.148438
0.831055 0.395355 0.148895
0.855560 0.404816 0.149139
0.879730 0.414429 0.149139
0.903473 0.424255 0.149353
0.160858 0.251251 0.111084
0.162720 0.251801 0.111206
0.169281 0.253723 0.111664
0.180634 0.257080 0.112549
0.196350 0.261749 0.113892
0.215668 0.267548 0.115753
0.237885 0.274323 0.118073
0.262238 0.281830 0.120911
0.288330 0.290009 0.124237
0.315582 0.298767 0.128052
0.342926 0.302155 0.129303
0.370850 0.305939 0.130707
0.399292 0.310089 0.132233
0.427948 0.314606 0.133850
0.456818 0.319458 0.135559
0.485718 0.324677 0.137329
0.514679 0.330292 0.139069
0.543488 0.336182 0.140869
0.572144 0.342468 0.142609
0.599884 0.348816 0.144318
0.627075 0.355347 0.145935
0.654022 0.362183 0.147430
0.680695 0.369293 0.148804
0.707092 0.376740 0.150024
0.733124 0.384430 0.151093
0.758850 0.392395 0.151978
0.784241 0.400604 0.152679
0.809235 0.409058 0.153198
0.833923 0.417694 0.153442
0.858215 0.426636 0.153534
0.882111 0.435760 0.153625
0.905640 0.445007 0.153961
0.182190 0.283508 0.120422
0.183838 0.283966 0.120514
0.189728 0.285645 0.120941
0.200043 0.288635 0.121735
0.214569 0.292816 0.122925
0.232635 0.298126 0.124542
0.253571 0.304352 0.126617
0.276886 0.311371 0.129150
0.301941 0.319000 0.132172
0.328339 0.327179 0.135681
0.355682 0.335876 0.139679
0.382935 0.339294 0.140656
0.410736 0.343079 0.141754
0.438812 0.347168 0.143005
0.467102 0.351563 0.144348
0.495514 0.356354 0.145752
0.523895 0.361420 0.147247
0.551727 0.366730 0.148712
0.578979 0.372040 0.150146
0.606018 0.377686 0.151581
0.632874 0.383728 0.152893
0.659424 0.389984 0.154144
0.685760 0.396545 0.155243
0.711792 0.403442 0.156219
0.737518 0.410583 0.157074
0.762939 0.418030 0.157745
0.788055 0.425690 0.158234
0.812744 0.433624 0.158569
0.837128 0.441742 0.158661
0.861145 0.450104 0.158539
0.884796 0.458618 0.159088
0.908112 0.467438 0.159485
0.203918 0.316223 0.129456
0.205444 0.316620 0.129517
0.210815 0.318146 0.129913
0.220245 0.320801 0.130615
0.233643 0.324615 0.131683
0.250549 0.329437 0.133118
0.270294 0.335144 0.135040
0.292450 0.341614 0.137390
0.316437 0.348694 0.140198
0.341888 0.356354 0.143433
0.368408 0.364502 0.147217
0.395691 0.373016 0.151398
0.422729 0.376434 0.152161
0.450226 0.380157 0.153015
0.477844 0.384186 0.154083
0.505280 0.388519 0.155151
0.532318 0.392792 0.156281
0.559235 0.397369 0.157440
0.585999 0.402252 0.158569
0.612610 0.407501 0.159668
0.639038 0.413025 0.160675
0.665253 0.418823 0.161621
0.691193 0.424896 0.162476
0.716888 0.431305 0.163177
0.742218 0.437958 0.163818
0.767334 0.444824 0.164215
0.792084 0.451965 0.164520
0.816528 0.459381 0.164581
0.840607 0.467010 0.164490
0.864380 0.474854 0.164917
0.887726 0.482880 0.165527
0.910767 0.491150 0.165863
0.226074 0.349396 0.138123
0.227478 0.349792 0.138245
0.232330 0.351074 0.138611
0.241058 0.353485 0.139252
0.253418 0.356903 0.140259
0.269226 0.361267 0.141602
0.287811 0.366455 0.143402
0.308838 0.372437 0.145599
0.331757 0.378998 0.148224
0.356171 0.386108 0.151337
0.381775 0.393707 0.154877
0.408203 0.401642 0.158905
0.435211 0.409912 0.163483
0.461578 0.413208 0.164001
0.487915 0.416656 0.164642
0.514313 0.420288 0.165375
0.540741 0.424255 0.166168
0.567139 0.428528 0.166962
0.593475 0.433044 0.167725
0.619659 0.437927 0.168518
0.645630 0.442993 0.169250
0.671448 0.448395 0.169922
0.696991 0.454071 0.170410
0.722290 0.459991 0.170898
0.747314 0.466156 0.171234
0.772064 0.472595 0.171417
0.796448 0.479248 0.171417
0.820587 0.486176 0.171295
0.844360 0.493286 0.171600
0.867828 0.500671 0.172424
0.890961 0.508240 0.172913
0.913696 0.515991 0.174957
0.248505 0.382874 0.146698
0.249786 0.383179 0.146790
0.254242 0.384399 0.147095
0.262268 0.386505 0.147736
0.273773 0.389587 0.148712
0.288483 0.393555 0.150024
0.305969 0.398285 0.151733
0.325867 0.403748 0.153839
0.347748 0.409790 0.156372
0.371155 0.416382 0.159332
0.395752 0.423370 0.162811
0.421051 0.430725 0.166687
0.446564 0.438110 0.170990
0.472382 0.445740 0.175690
0.497986 0.448914 0.176056
0.523773 0.452332 0.176392
0.549683 0.456055 0.176819
0.575562 0.460022 0.177277
0.601349 0.464203 0.177734
0.627045 0.468750 0.178162
0.652618 0.473480 0.178558
0.677979 0.478516 0.178894
0.703125 0.483765 0.179138
0.728027 0.489258 0.179321
0.752686 0.495026 0.179352
0.777039 0.501038 0.179291
0.801147 0.507294 0.179016
0.824951 0.513763 0.179352
0.848419 0.520447 0.180267
0.871552 0.527344 0.180908
0.894318 0.534363 0.182129
0.916840 0.541473 0.187653
0.271118 0.416504 0.155151
0.272278 0.416809 0.155273
0.276367 0.417877 0.155609
0.283844 0.419769 0.156219
0.294495 0.422516 0.157166
0.308258 0.426056 0.158447
0.324677 0.430389 0.160095
0.343475 0.435333 0.162140
0.364227 0.440887 0.164642
0.386505 0.446869 0.167542
0.409515 0.453064 0.170807
0.433441 0.459564 0.174561
0.458099 0.466553 0.178680
0.483185 0.473785 0.183197
0.508606 0.481323 0.188110
0.533752 0.484528 0.188141
0.559052 0.487976 0.188263
0.584351 0.491669 0.188354
0.609650 0.495667 0.188446
0.634857 0.499817 0.188568
0.659943 0.504272 0.188629
0.684845 0.508881 0.188660
0.709564 0.513824 0.188599
0.734070 0.518982 0.188446
0.758331 0.524353 0.188171
0.782318 0.529968 0.187805
0.806061 0.535828 0.188324
0.829529 0.541870 0.189270
0.852661 0.548126 0.190002
0.875488 0.554413 0.191101
0.897980 0.560883 0.196075
0.920166 0.567505 0.201416
0.293823 0.450226 0.163666
0.294861 0.450470 0.163757
0.298676 0.451416 0.164093
0.305481 0.453094 0.164703
0.315430 0.455536 0.165680
0.328278 0.458801 0.166931
0.343811 0.462677 0.168579
0.361237 0.466949 0.170563
0.380585 0.471771 0.172943
0.401398 0.477081 0.175751
0.423431 0.482788 0.178894
0.446472 0.488922 0.182465
0.470215 0.495422 0.186432
0.494537 0.502258 0.190765
0.519226 0.509308 0.195526
0.544189 0.516663 0.200684
0.568817 0.519897 0.200378
0.593567 0.523376 0.200134
0.618317 0.527100 0.199890
0.642975 0.530975 0.199677
0.667542 0.535095 0.199402
0.692047 0.539490 0.199066
0.716309 0.544128 0.198700
0.740417 0.548950 0.198242
0.764282 0.553986 0.197662
0.787903 0.559204 0.198639
0.811249 0.564697 0.199585
0.834320 0.570221 0.200317
0.857117 0.575867 0.201782
0.879608 0.581726 0.206116
0.901794 0.587738 0.210876
0.923676 0.593964 0.216064
0.316559 0.483795 0.172272
0.317505 0.484009 0.172333
0.320984 0.484802 0.172699
0.327240 0.486206 0.173309
0.336304 0.488281 0.174225
0.348083 0.490997 0.175476
0.362244 0.494324 0.177063
0.378693 0.498291 0.178986
0.396881 0.502686 0.181305
0.416748 0.507629 0.183990
0.437836 0.512939 0.187012
0.459900 0.518646 0.190460
0.482849 0.524719 0.194275
0.506348 0.531097 0.198425
0.530334 0.537750 0.203033
0.554535 0.544647 0.207947
0.579010 0.551758 0.213226
0.603119 0.554993 0.212646
0.627289 0.558472 0.212067
0.651459 0.562164 0.211487
0.675537 0.566040 0.210876
0.699524 0.570129 0.210205
0.723358 0.574463 0.209503
0.746979 0.578979 0.209534
0.770447 0.583710 0.210541
0.793671 0.588531 0.211365
0.816650 0.593384 0.212067
0.839386 0.598480 0.214111
0.861816 0.603790 0.217834
0.884003 0.609222 0.222015
0.905823 0.614868 0.226624
0.927399 0.620636 0.231628
0.338287 0.516602 0.180817
0.339233 0.516785 0.180908
0.342407 0.517487 0.181244
0.348206 0.518799 0.181885
0.356628 0.520660 0.182739
0.367584 0.523132 0.183929
0.380890 0.526184 0.185516
0.396362 0.529755 0.187347
0.413605 0.533875 0.189606
0.432465 0.538391 0.192169
0.452637 0.543335 0.195129
0.473785 0.548615 0.198425
0.495880 0.554260 0.202087
0.518555 0.560211 0.206085
0.541779 0.566467 0.210480
0.565277 0.572876 0.215240
0.589111 0.579590 0.220337
0.613037 0.586487 0.225800
0.636597 0.589722 0.224884
0.660187 0.593170 0.223969
0.683777 0.596832 0.222992
0.707245 0.600647 0.222412
0.730621 0.604736 0.223297
0.753845 0.608826 0.224091
0.776855 0.613007 0.224762
0.799713 0.617401 0.225342
0.822266 0.621948 0.227997
0.844666 0.626770 0.231140
0.866730 0.631683 0.234680
0.888519 0.636780 0.238708
0.910065 0.642059 0.243103
0.931274 0.647522 0.247925
0.359985 0.549438 0.189331
0.360809 0.549622 0.189423
0.363800 0.550293 0.189758
0.369141 0.551453 0.190308
0.377014 0.553131 0.191162
0.387207 0.555359 0.192383
0.399750 0.558197 0.193817
0.414246 0.561432 0.195679
0.430603 0.565155 0.197845
0.448547 0.569336 0.200317
0.467773 0.573883 0.203156
0.488098 0.578827 0.206329
0.509277 0.584045 0.209869
0.531189 0.589600 0.213776
0.553589 0.595337 0.217987
0.576416 0.601379 0.222565
0.599548 0.607666 0.227478
0.622864 0.614136 0.232697
0.646179 0.620697 0.238281
0.669250 0.623962 0.237701
0.692291 0.627411 0.238312
0.715302 0.630798 0.238892
0.738220 0.634399 0.239410
0.760925 0.638123 0.239929
0.783539 0.642059 0.241211
0.805908 0.646149 0.243378
0.828125 0.650482 0.245911
0.850067 0.654877 0.248901
0.871796 0.659515 0.252289
0.893250 0.664337 0.256134
0.914459 0.669250 0.260376
0.935333 0.674316 0.265015
0.381500 0.582336 0.197754
0.382294 0.582458 0.197815
0.385010 0.583069 0.198120
0.390045 0.584106 0.198700
0.397339 0.585632 0.199524
0.406952 0.587677 0.200684
0.418640 0.590179 0.202118
0.432373 0.593170 0.203857
0.447845 0.596588 0.205963
0.464844 0.600403 0.208344
0.483185 0.604614 0.211121
0.502655 0.609131 0.214172
0.523010 0.613983 0.217621
0.544098 0.619080 0.221344
0.565765 0.624481 0.225464
0.587891 0.630096 0.229828
0.610321 0.635895 0.234619
0.632996 0.641937 0.241119
0.655762 0.648071 0.248291
0.678558 0.654114 0.256165
0.701080 0.657166 0.256470
0.723572 0.660339 0.256683
0.745941 0.663666 0.257294
0.768250 0.667175 0.258484
0.790405 0.670837 0.260101
0.812347 0.674713 0.262054
0.834167 0.678711 0.264496
0.855743 0.682922 0.267365
0.877075 0.687195 0.270569
0.898132 0.691681 0.274200
0.918976 0.696320 0.278290
0.939514 0.701141 0.282776
0.402863 0.615143 0.206024
0.403595 0.615295 0.206116
0.406128 0.615784 0.206390
0.410828 0.616730 0.206940
0.417633 0.618103 0.207764
0.426636 0.619995 0.208893
0.437653 0.622223 0.210266
0.450562 0.624908 0.211975
0.465240 0.628052 0.214020
0.481384 0.631531 0.216339
0.498901 0.635376 0.218994
0.517487 0.639557 0.221954
0.537018 0.644012 0.225250
0.557312 0.648743 0.229309
0.578217 0.653717 0.234100
0.599640 0.658905 0.239441
0.621399 0.664307 0.245422
0.643372 0.669647 0.252045
0.665558 0.675110 0.259338
0.687805 0.680695 0.267273
0.710083 0.686493 0.275940
0.732025 0.689453 0.276245
0.753937 0.692596 0.276947
0.775757 0.695892 0.278015
0.797455 0.699341 0.279480
0.819000 0.702972 0.281372
0.840332 0.706696 0.283630
0.861511 0.710632 0.286316
0.882477 0.714691 0.289429
0.903198 0.718933 0.292969
0.923676 0.723236 0.296783
0.943909 0.727783 0.301117
0.424042 0.647797 0.214172
0.424713 0.647949 0.214264
0.427094 0.648438 0.214569
0.431427 0.649261 0.215088
0.437866 0.650513 0.215851
0.446228 0.652130 0.216919
0.456635 0.654205 0.218292
0.468872 0.656677 0.220093
0.482758 0.659515 0.222168
0.498047 0.662659 0.224670
0.514771 0.666168 0.227600
0.532532 0.669983 0.231018
0.551239 0.674072 0.234924
0.570801 0.678436 0.239319
0.590942 0.682953 0.244293
0.611664 0.687500 0.249847
0.632751 0.692261 0.255981
0.654053 0.697113 0.262726
0.675598 0.702179 0.270111
0.697296 0.707367 0.278198
0.718994 0.712708 0.286926
0.740692 0.718170 0.296387
0.762085 0.721100 0.297028
0.783417 0.724213 0.297974
0.804657 0.727478 0.299377
0.825775 0.730865 0.301147
0.846680 0.734375 0.303253
0.867493 0.738068 0.305847
0.888031 0.741882 0.308807
0.908386 0.745850 0.312103
0.928528 0.749939 0.315857
0.948395 0.754181 0.320038
0.445007 0.680298 0.222168
0.445618 0.680420 0.222260
0.447876 0.680878 0.222565
0.451935 0.681580 0.223145
0.457947 0.682709 0.223999
0.465851 0.684235 0.225220
0.475616 0.686066 0.226776
0.487122 0.688293 0.228638
0.500244 0.690826 0.230927
0.514832 0.693695 0.233612
0.530701 0.696899 0.236755
0.547729 0.700378 0.240326
0.565704 0.703949 0.244476
0.584442 0.707672 0.249054
0.603912 0.711670 0.254181
0.623871 0.715820 0.259918
0.644226 0.720154 0.266205
0.664948 0.724670 0.273102
0.685913 0.729340 0.280670
0.706940 0.734070 0.288849
0.728088 0.739044 0.297668
0.749298 0.744080 0.307220
0.770386 0.749207 0.317474
0.791229 0.752106 0.318390
0.812042 0.755188 0.319702
0.832672 0.758362 0.321350
0.853180 0.761688 0.323395
0.873566 0.765137 0.325806
0.893738 0.768738 0.328613
0.913727 0.772491 0.331818
0.933472 0.776367 0.335388
0.953033 0.780334 0.339355
0.465729 0.712616 0.230011
0.466309 0.712677 0.230072
0.468384 0.713043 0.230438
0.472229 0.713715 0.231049
0.477844 0.714752 0.231995
0.485291 0.716034 0.233276
0.494476 0.717712 0.234955
0.505371 0.719727 0.237000
0.517822 0.721954 0.239441
0.531677 0.724365 0.242310
0.546814 0.727112 0.245636
0.563049 0.730042 0.249451
0.580261 0.733246 0.253693
0.598297 0.736664 0.258514
0.616974 0.740265 0.263824
0.636261 0.744080 0.269684
0.655975 0.748077 0.276154
0.676025 0.752167 0.283234
0.696350 0.756470 0.290863
0.716827 0.760834 0.299164
0.737396 0.765350 0.308167
0.758026 0.770020 0.317780
0.778625 0.774750 0.328064
0.799225 0.779602 0.339111
0.819519 0.782471 0.340332
0.839752 0.785461 0.341888
0.859833 0.788605 0.343811
0.879791 0.791870 0.346161
0.899567 0.795288 0.348816
0.919189 0.798798 0.351898
0.938599 0.802429 0.355316
0.957794 0.806213 0.359161
0.486145 0.744415 0.237579
0.486664 0.744476 0.237640
0.488708 0.744812 0.238037
0.492249 0.745331 0.238739
0.497589 0.746216 0.239716
0.504547 0.747314 0.241119
0.513275 0.748688 0.242889
0.523529 0.750366 0.245087
0.535309 0.752289 0.247681
0.548523 0.754517 0.250702
0.562927 0.756927 0.254211
0.578430 0.759552 0.258179
0.594910 0.762451 0.262634
0.612213 0.765533 0.267578
0.630219 0.768829 0.273071
0.648773 0.772247 0.279144
0.667847 0.775879 0.285767
0.687256 0.779633 0.292969
0.706970 0.783539 0.300781
0.726807 0.787567 0.309174
0.746857 0.791687 0.318268
0.766968 0.795959 0.328033
0.787048 0.800323 0.338440
0.807129 0.804749 0.349670
0.827148 0.809326 0.361206
0.846893 0.812164 0.362732
0.866577 0.815094 0.364563
0.886108 0.818207 0.366821
0.905518 0.821411 0.369385
0.924774 0.824738 0.372284
0.943848 0.828186 0.375610
0.962677 0.831757 0.379333
0.506348 0.775421 0.244904
0.506866 0.775482 0.245026
0.508698 0.775757 0.245422
0.512085 0.776245 0.246155
0.517029 0.776978 0.247223
0.523651 0.777954 0.248688
0.531830 0.779205 0.250549
0.541565 0.780670 0.252869
0.552765 0.782410 0.255615
0.565308 0.784363 0.258759
0.579010 0.786530 0.262421
0.593872 0.788910 0.266571
0.609589 0.791504 0.271149
0.626221 0.794281 0.276306
0.643524 0.797211 0.281982
0.661407 0.800354 0.288177
0.679840 0.803619 0.294983
0.698578 0.807037 0.302338
0.717682 0.810577 0.310303
0.737000 0.814209 0.319092
0.756470 0.817993 0.329071
0.776031 0.821930 0.339447
0.795624 0.825897 0.350098
0.815186 0.829987 0.361023
0.834747 0.834137 0.372314
0.854218 0.838379 0.383789
0.873474 0.841187 0.385559
0.892609 0.844086 0.387665
0.911621 0.847137 0.390167
0.930481 0.850311 0.392944
0.949188 0.853546 0.396118
0.967682 0.856934 0.399689
0.526215 0.806122 0.251953
0.526672 0.806183 0.252045
0.528412 0.806427 0.252502
0.531586 0.806854 0.253235
0.536285 0.807495 0.254395
0.542511 0.808350 0.255920
0.550262 0.809448 0.257904
0.559509 0.810730 0.260315
0.570099 0.812256 0.263184
0.582001 0.814026 0.266449
0.595093 0.815918 0.270264
0.609253 0.818054 0.274567
0.624329 0.820343 0.279327
0.640259 0.822845 0.284637
0.656860 0.825500 0.290466
0.674133 0.828308 0.297241
0.691925 0.831238 0.305389
0.710083 0.834320 0.313965
0.728546 0.837524 0.322968
0.747284 0.840851 0.332306
0.766174 0.844330 0.342072
0.785217 0.847809 0.352142
0.804291 0.851471 0.362488
0.823425 0.855194 0.373199
0.842499 0.858978 0.384125
0.861511 0.862854 0.395325
0.880432 0.866791 0.406708
0.899200 0.869598 0.408722
0.917816 0.872467 0.411133
0.936279 0.875458 0.413818
0.954620 0.878571 0.416870
0.972809 0.881805 0.420319
0.545746 0.836456 0.258698
0.546234 0.836517 0.258850
0.547821 0.836761 0.259247
0.550842 0.837128 0.260040
0.555237 0.837677 0.261230
0.561157 0.838440 0.262878
0.568481 0.839417 0.264893
0.577240 0.840546 0.267426
0.587280 0.841858 0.270538
0.598633 0.843414 0.274963
0.611084 0.845123 0.279877
0.624603 0.847015 0.285400
0.639069 0.849060 0.291382
0.654358 0.851257 0.297882
0.670380 0.853638 0.304810
0.686951 0.856140 0.312317
0.704102 0.858765 0.320190
0.721619 0.861572 0.328491
