test2.cube.CUBE
#Created by: Adobe Photoshop Export Color Lookup Plugin
TITLE "test2"
#LUT size
LUT_3D_SIZE 8
#data domain
#LUT data points
DOMAIN_MIN 0.000000 0.000000 0.000000
DOMAIN_MAX 0.903226 0.903226 0.903226
0.000000 0.000000 0.000000
0.101227 0.034851 0.037170
0.215698 0.073151 0.067108
0.339569 0.115143 0.090088
0.467255 0.160309 0.107117
0.593292 0.208038 0.119385
0.712860 0.257385 0.128052
0.820251 0.306458 0.133545
0.064026 0.101837 0.056152
0.124908 0.121582 0.064819
0.233276 0.137024 0.080902
0.353302 0.163666 0.098114
0.477661 0.198669 0.112579
0.600708 0.239258 0.123718
0.717438 0.283203 0.131866
0.822784 0.328003 0.136871
0.140106 0.219696 0.101257
0.179169 0.231476 0.104584
0.275696 0.261963 0.116364
0.388458 0.277740 0.123535
0.505951 0.300049 0.131897
0.621735 0.328217 0.139771
0.729126 0.359711 0.145813
0.831055 0.395355 0.148895
0.226074 0.349396 0.138123
0.253418 0.356903 0.140259
0.331757 0.378998 0.148224
0.435211 0.409912 0.163483
0.540741 0.424255 0.166168
0.645630 0.442993 0.169250
0.747314 0.466156 0.171234
0.844360 0.493286 0.171600
0.316559 0.483795 0.172272
0.336304 0.488281 0.174225
0.396881 0.502686 0.181305
0.482849 0.524719 0.194275
0.579010 0.551758 0.213226
0.675537 0.566040 0.210876
0.770447 0.583710 0.210541
0.861816 0.603790 0.217834
0.402863 0.615143 0.206024
0.417633 0.618103 0.207764
0.465240 0.628052 0.214020
0.537018 0.644012 0.225250
0.621399 0.664307 0.245422
0.710083 0.686493 0.275940
0.797455 0.699341 0.279480
0.882477 0.714691 0.289429
0.486145 0.744415 0.237579
0.497589 0.746216 0.239716
0.535309 0.752289 0.247681
0.594910 0.762451 0.262634
0.667847 0.775879 0.285767
0.746857 0.791687 0.318268
0.827148 0.809326 0.361206
0.905518 0.821411 0.369385
0.565063 0.866516 0.272919
0.574066 0.867584 0.276245
0.604431 0.871246 0.287811
0.653809 0.877563 0.307892
0.716309 0.886169 0.335724
0.785980 0.896637 0.370209
0.858307 0.908661 0.409821
0.930450 0.921783 0.453400
0.055542 0.025757 0.082794
0.088531 0.058990 0.091217
0.208588 0.089203 0.098999
0.335449 0.126465 0.110168
0.464844 0.168793 0.120636
0.591858 0.214569 0.129028
0.711975 0.262543 0.135254
0.819672 0.310516 0.138977
0.095520 0.093445 0.099609
0.104706 0.104675 0.110168
0.219818 0.118225 0.108185
0.343872 0.145569 0.114471
0.471008 0.183136 0.123627
0.596130 0.226135 0.131714
0.714813 0.272186 0.137939
0.821228 0.318726 0.141693
0.158539 0.213959 0.123901
0.162201 0.224304 0.125061
0.271698 0.259155 0.135559
0.383087 0.269501 0.137543
0.501587 0.290955 0.141876
0.618713 0.319305 0.147308
0.727112 0.351593 0.151703
0.829681 0.387939 0.153717
0.238190 0.346161 0.153015
0.240997 0.352997 0.152679
0.324982 0.376648 0.160339
0.434021 0.409302 0.175415
0.538605 0.420288 0.175476
0.643768 0.438019 0.176483
0.745819 0.460846 0.177002
0.843292 0.488037 0.177094
0.324829 0.481781 0.183685
0.327179 0.486115 0.183014
0.390625 0.501099 0.190094
0.479645 0.523834 0.203094
0.578552 0.551636 0.222137
0.674530 0.563873 0.217987
0.769501 0.580719 0.217682
0.861084 0.600464 0.225616
0.408661 0.614014 0.215485
0.410889 0.616791 0.214661
0.459900 0.626984 0.220917
0.533600 0.643280 0.233063
0.619720 0.663940 0.253998
0.709930 0.686493 0.285248
0.796967 0.698120 0.287628
0.881958 0.712799 0.296722
0.490295 0.743805 0.245758
0.492310 0.745422 0.244751
0.530945 0.751617 0.252960
0.591675 0.761963 0.268341
0.665833 0.775543 0.292084
0.745911 0.791565 0.325256
0.827118 0.809357 0.368835
0.905304 0.820618 0.376068
0.568115 0.866272 0.285065
0.569946 0.867126 0.282990
0.600830 0.870850 0.294495
0.650970 0.877228 0.314606
0.714264 0.885895 0.342438
0.784668 0.896484 0.376831
0.857727 0.908600 0.416351
0.930481 0.921814 0.459686
0.117615 0.053314 0.144836
0.144775 0.085999 0.153076
0.193848 0.123322 0.165222
0.325256 0.155518 0.161011
0.458130 0.192993 0.159271
0.587494 0.234558 0.158691
0.709015 0.278900 0.158356
0.817657 0.323792 0.156982
0.152618 0.118530 0.160553
0.151825 0.119232 0.168488
0.204498 0.149506 0.177704
0.333405 0.174194 0.167877
0.464081 0.207153 0.163971
0.591705 0.245941 0.162476
0.711365 0.288330 0.161804
0.819214 0.331848 0.160217
0.205994 0.199554 0.189178
0.212891 0.208557 0.196594
0.235962 0.229401 0.213348
0.359192 0.243469 0.198151
0.484222 0.262573 0.185974
0.606445 0.290802 0.179749
0.719666 0.324890 0.176605
0.824799 0.363159 0.173523
0.274231 0.336700 0.202545
0.278076 0.343079 0.204163
0.292999 0.362152 0.207642
0.423584 0.401215 0.221863
0.527771 0.405579 0.216125
0.635895 0.421173 0.207489
0.740204 0.443146 0.201660
0.839478 0.470428 0.199921
0.351196 0.475464 0.223694
0.353882 0.479675 0.223846
0.365021 0.493103 0.223816
0.465942 0.518494 0.236847
0.574860 0.549042 0.256256
0.669800 0.555664 0.251587
0.765717 0.570496 0.249329
0.858307 0.589264 0.256409
0.427826 0.610321 0.249329
0.430084 0.613007 0.248840
0.439545 0.622223 0.247223
0.520233 0.639862 0.261688
0.612915 0.661926 0.285187
0.708649 0.685760 0.319366
0.794922 0.693420 0.318573
0.880157 0.706451 0.325439
0.504303 0.741638 0.275269
0.506317 0.743286 0.274445
0.514618 0.748962 0.271881
0.579651 0.759827 0.289063
0.658142 0.774048 0.314972
0.742188 0.790741 0.353058
0.826660 0.809174 0.396759
0.904388 0.817719 0.401184
0.578522 0.865387 0.326660
0.580353 0.866241 0.325012
0.587708 0.869293 0.319458
0.640564 0.875916 0.339508
0.706818 0.884918 0.367126
0.779999 0.895813 0.401093
0.855499 0.908234 0.440094
0.930328 0.921814 0.482666
0.185913 0.082733 0.185913
0.207153 0.115326 0.197113
0.249237 0.151672 0.209625
0.312744 0.191956 0.224365
0.449158 0.225739 0.211945
0.581268 0.263275 0.202026
0.703705 0.303314 0.196686
0.814697 0.344849 0.205963
0.217987 0.146606 0.210815
0.212341 0.144867 0.214996
0.255249 0.173462 0.222321
0.320496 0.209900 0.234650
0.454956 0.239532 0.218872
0.585419 0.274414 0.207458
0.706024 0.312408 0.201508
0.816223 0.352722 0.210114
0.264465 0.224030 0.242554
0.265717 0.227417 0.246399
0.273499 0.235016 0.256134
0.345337 0.267822 0.267059
0.474792 0.289886 0.244751
0.599701 0.316406 0.228790
0.714417 0.347260 0.221252
0.821899 0.382874 0.227386
0.324890 0.323853 0.286163
0.329620 0.329742 0.291077
0.347015 0.347046 0.305389
0.384369 0.367920 0.322662
0.505432 0.382446 0.299744
0.620453 0.396942 0.279144
0.729858 0.417328 0.268127
0.832855 0.444000 0.267792
0.390869 0.466125 0.295166
0.393799 0.470093 0.296692
0.405518 0.482880 0.301422
0.433228 0.502319 0.308167
0.561829 0.538055 0.336548
0.658142 0.541260 0.331360
0.758026 0.554504 0.321045
0.853302 0.571960 0.320160
0.458313 0.604462 0.311432
0.460632 0.607086 0.311615
0.470032 0.616089 0.312225
0.492432 0.630798 0.313751
0.597656 0.655487 0.343170
0.703674 0.681763 0.383636
0.789856 0.684845 0.382477
0.876709 0.696320 0.384491
0.527618 0.738159 0.343964
0.529572 0.739777 0.343262
0.537598 0.745392 0.341003
0.556488 0.754944 0.338379
0.643219 0.770386 0.369659
0.734406 0.788269 0.407257
0.824890 0.807861 0.449585
0.902374 0.812531 0.451355
0.596100 0.863831 0.396973
0.597839 0.864685 0.395844
0.604858 0.867737 0.392181
0.621246 0.873322 0.387573
0.692932 0.882843 0.414673
0.771240 0.894318 0.447784
0.851196 0.907318 0.485413
0.929871 0.921539 0.526398
0.259491 0.113983 0.206543
0.273834 0.146362 0.221710
0.308502 0.181854 0.237152
0.363831 0.220734 0.255585
0.439301 0.262787 0.280762
0.574554 0.297028 0.278076
0.697693 0.332977 0.283478
0.811218 0.371307 0.296021
0.288147 0.176270 0.242950
0.278656 0.173981 0.244080
0.312866 0.201630 0.252197
0.368530 0.236298 0.267670
0.444946 0.276062 0.291321
0.578583 0.307770 0.285706
0.700043 0.341766 0.289093
0.812775 0.378906 0.300323
0.328674 0.250519 0.283691
0.326935 0.252075 0.285461
0.326050 0.254944 0.289276
0.384003 0.284943 0.302460
0.463684 0.320770 0.325256
0.590698 0.345917 0.312775
0.708405 0.374542 0.310547
0.818451 0.407532 0.317322
0.380829 0.345764 0.333923
0.382111 0.348236 0.336395
0.389008 0.355804 0.343872
0.410400 0.366669 0.354279
0.492828 0.398041 0.380707
0.611908 0.417725 0.363281
0.724091 0.438812 0.354401
0.829468 0.464539 0.354340
0.438477 0.455078 0.400543
0.441467 0.458893 0.404175
0.453156 0.471069 0.415985
0.479523 0.489502 0.433868
0.528503 0.507965 0.452179
0.640839 0.522919 0.438629
0.746918 0.536987 0.425568
0.846649 0.553558 0.418304
0.496704 0.597382 0.413635
0.498932 0.599915 0.415100
0.507965 0.608704 0.419861
0.528900 0.622955 0.427948
0.570740 0.641235 0.440277
0.691528 0.670990 0.479858
0.780884 0.674194 0.481750
0.871796 0.684784 0.475342
0.557922 0.733765 0.444275
0.559753 0.735321 0.444489
0.567261 0.740814 0.445374
0.584839 0.750244 0.447968
0.619934 0.763214 0.454742
0.721375 0.782745 0.490356
0.820374 0.803986 0.529968
0.899017 0.806061 0.533600
0.619415 0.861755 0.489868
0.621033 0.862610 0.489319
0.627594 0.865631 0.487854
0.642792 0.871185 0.486664
0.672791 0.879364 0.489319
0.758331 0.891663 0.520569
0.844635 0.905518 0.555756
0.928650 0.920502 0.593750
0.337524 0.147003 0.233948
0.344147 0.178955 0.258911
0.370911 0.213684 0.286041
0.417664 0.251251 0.315826
0.483795 0.291443 0.348938
0.566223 0.333313 0.386292
0.691406 0.365814 0.392029
0.807495 0.401123 0.404480
0.361816 0.207306 0.279205
0.348694 0.204865 0.278809
0.374390 0.231934 0.299896
0.420929 0.265259 0.326447
0.487213 0.303040 0.357849
0.569489 0.343262 0.394287
0.693695 0.374176 0.397827
0.809021 0.408325 0.408875
0.396149 0.278259 0.331024
0.392120 0.279083 0.332062
0.384613 0.279907 0.333740
0.431519 0.308258 0.357391
0.498627 0.341614 0.386566
0.581055 0.377777 0.421204
0.701996 0.404602 0.418793
0.814697 0.435181 0.425293
0.440247 0.368958 0.390839
0.439453 0.369995 0.392426
0.439636 0.373138 0.397217
0.449554 0.378296 0.404602
0.516113 0.406799 0.432861
0.601624 0.439667 0.466217
0.717560 0.462494 0.457825
0.825684 0.487579 0.458496
0.487183 0.472412 0.459045
0.488129 0.474091 0.461090
0.493042 0.479614 0.468109
0.508026 0.489014 0.479675
0.543701 0.502625 0.495300
0.631500 0.531860 0.527496
0.740875 0.551056 0.516724
0.842957 0.568665 0.512878
0.539734 0.589417 0.533203
0.541779 0.591888 0.535797
0.550018 0.600372 0.544739
0.568878 0.614288 0.559448
0.606201 0.631836 0.578552
0.666351 0.647614 0.596558
0.769592 0.661591 0.591949
0.865906 0.674103 0.587097
0.592682 0.728577 0.558380
0.594360 0.730103 0.559448
0.601166 0.735535 0.563263
0.616913 0.744843 0.570313
0.648376 0.757660 0.581818
0.703125 0.772919 0.599670
0.811615 0.795959 0.634430
0.894501 0.800537 0.641663
0.646912 0.859253 0.597595
0.648346 0.860107 0.597626
0.654236 0.863129 0.598145
0.667908 0.868622 0.600189
0.695068 0.876831 0.606079
0.742737 0.887634 0.619751
0.836090 0.902405 0.650848
0.926239 0.918365 0.684113
0.420532 0.182434 0.341248
0.418274 0.213593 0.362152
0.436005 0.247162 0.385620
0.473328 0.283112 0.412354
0.528992 0.321136 0.442932
0.599121 0.359924 0.477417
0.684937 0.400574 0.515472
0.803619 0.433044 0.528961
0.438965 0.240051 0.379333
0.422546 0.237793 0.378815
0.438812 0.263977 0.397339
0.475586 0.295837 0.421387
0.530640 0.331268 0.450470
0.601013 0.368713 0.483978
0.687225 0.408478 0.521423
0.805115 0.439850 0.533203
0.466187 0.307220 0.425110
0.460144 0.307709 0.425629
0.446930 0.307709 0.426239
0.483002 0.334534 0.447815
0.536591 0.364929 0.474487
0.607910 0.399078 0.506012
0.695404 0.436371 0.541870
0.810730 0.464691 0.548737
0.499329 0.391998 0.479492
0.497040 0.392334 0.480347
0.492340 0.393433 0.483185
0.494110 0.395752 0.487976
0.548431 0.422546 0.513153
0.621185 0.453308 0.543030
0.710480 0.487488 0.577179
0.821594 0.512024 0.578064
0.538086 0.490936 0.541260
0.537659 0.491486 0.542419
0.537964 0.493591 0.546539
0.544891 0.497986 0.554016
0.568878 0.506958 0.565918
0.642609 0.534088 0.594177
0.733185 0.564117 0.626404
0.838715 0.584564 0.622925
0.582428 0.602997 0.608490
0.583160 0.604004 0.609955
0.586731 0.607666 0.615204
0.597504 0.614288 0.624512
0.623413 0.624817 0.638367
0.673828 0.640808 0.657196
0.763275 0.665192 0.686401
0.862091 0.681671 0.682465
0.630341 0.722870 0.678406
0.631775 0.724426 0.680145
0.637634 0.729736 0.686249
0.651245 0.738922 0.696930
0.678680 0.751678 0.711853
0.726868 0.766937 0.729980
0.795715 0.780701 0.746765
0.889343 0.793793 0.749695
0.677155 0.856476 0.712677
0.678406 0.857330 0.713287
0.683502 0.860321 0.715485
0.695404 0.865814 0.720154
0.719299 0.874023 0.728424
0.761810 0.884949 0.742218
0.827271 0.897888 0.763000
0.922241 0.914551 0.789703
0.505524 0.219452 0.478943
0.493835 0.249542 0.495972
0.501953 0.281586 0.515900
0.528473 0.315460 0.539368
0.571869 0.350555 0.566376
0.632538 0.387512 0.596863
0.709015 0.426178 0.630615
0.799652 0.466339 0.667297
0.517181 0.273804 0.510254
0.497650 0.271759 0.509460
0.504242 0.297028 0.525543
0.529541 0.326813 0.546661
0.572906 0.359741 0.572296
0.633667 0.395386 0.601929
0.710327 0.433167 0.635162
0.801208 0.472687 0.671387
0.534790 0.336060 0.549561
0.527161 0.336487 0.549652
0.509216 0.336365 0.549194
0.533478 0.361267 0.567932
0.576843 0.390198 0.591370
0.637878 0.422577 0.619110
0.715088 0.457916 0.650787
0.806732 0.495361 0.685760
0.559052 0.415924 0.596466
0.555542 0.415924 0.596802
0.546692 0.415833 0.597870
0.541565 0.416565 0.600433
0.585052 0.442017 0.622253
0.646606 0.470978 0.648285
0.724640 0.503143 0.678131
0.817291 0.537170 0.711365
0.590149 0.510254 0.650024
0.588715 0.510223 0.650574
0.585327 0.510376 0.652527
0.585815 0.511841 0.656738
0.600342 0.517700 0.665131
0.662140 0.543060 0.689331
0.740540 0.570831 0.717194
0.833771 0.600769 0.748047
0.626709 0.616760 0.708435
0.626434 0.616943 0.709106
0.626587 0.617767 0.711731
0.631226 0.620178 0.717010
0.648163 0.626282 0.726379
0.687378 0.639374 0.741821
0.764801 0.662292 0.766815
0.856903 0.687469 0.794464
0.666992 0.731506 0.769012
0.667480 0.731995 0.769836
0.669983 0.733795 0.773010
0.677734 0.737640 0.779114
0.696594 0.744568 0.788879
0.734711 0.756287 0.803406
0.797791 0.774292 0.822815
0.885651 0.794098 0.846039
0.709229 0.853485 0.828857
0.710266 0.854309 0.829834
0.714447 0.857269 0.833344
0.724365 0.862793 0.839905
0.744720 0.871033 0.849731
0.781860 0.882080 0.862946
0.840240 0.895264 0.878723
0.915588 0.907959 0.893890
