test2.cube.CUBE
#Created by: Adobe Photoshop Export Color Lookup Plugin
TITLE "test2"
#LUT size
LUT_3D_SIZE 5
#data domain
#LUT data points
DOMAIN_MIN 0.000000 0.000000 0.000000
DOMAIN_MAX 0.903226 0.903226 0.903226
0.000000 0.000000 0.000000
0.186005 0.063232 0.060303
0.403290 0.137360 0.099274
0.623901 0.220276 0.121857
0.820251 0.306458 0.133545
0.119995 0.188873 0.090942
0.236359 0.225616 0.104370
0.437897 0.257996 0.120789
0.644409 0.310730 0.136414
0.828461 0.374878 0.144989
0.271118 0.416504 0.155151
0.343475 0.435333 0.162140
0.508606 0.481323 0.188110
0.684845 0.508881 0.188660
0.852661 0.548126 0.190002
0.424042 0.647797 0.214172
0.468872 0.656677 0.220093
0.590942 0.682953 0.244293
0.740692 0.718170 0.296387
0.888031 0.741882 0.308807
0.565063 0.866516 0.272919
0.594818 0.870087 0.284088
0.683838 0.881561 0.320892
0.803955 0.899536 0.379669
0.930450 0.921783 0.453400
0.101501 0.046234 0.131317
0.166046 0.106781 0.148254
0.394196 0.165985 0.147156
0.619934 0.239655 0.150116
0.818298 0.319641 0.151367
0.177185 0.170685 0.166077
0.200958 0.196564 0.187714
0.417145 0.224579 0.167999
0.632996 0.279175 0.163452
0.823578 0.348663 0.162750
0.302856 0.408752 0.198059
0.314026 0.425629 0.198456
0.504242 0.478394 0.224365
0.679565 0.496552 0.214233
0.849487 0.534058 0.215576
0.441467 0.644592 0.245270
0.449646 0.652802 0.243042
0.581696 0.680878 0.270508
0.740021 0.717957 0.327026
0.886536 0.736633 0.334595
0.575195 0.865631 0.313385
0.581848 0.868591 0.307495
0.675323 0.880524 0.344269
0.800110 0.898987 0.402466
0.930359 0.921814 0.475128
0.222107 0.098114 0.198761
0.266937 0.157288 0.222076
0.375427 0.227203 0.249542
0.610046 0.289032 0.230957
0.813019 0.357574 0.248474
0.283844 0.215607 0.255341
0.281799 0.219910 0.262299
0.396912 0.277191 0.281281
0.621490 0.325134 0.254303
0.818329 0.384857 0.263947
0.383911 0.389557 0.340698
0.397247 0.404541 0.354065
0.457428 0.437805 0.385071
0.657288 0.462555 0.353485
0.839020 0.496307 0.339020
0.492950 0.635529 0.364716
0.500885 0.643372 0.366150
0.542328 0.667480 0.372345
0.731812 0.711243 0.440979
0.880768 0.721283 0.442963
0.607147 0.862854 0.441071
0.613281 0.865753 0.438385
0.644653 0.876038 0.434326
0.786041 0.896362 0.489532
0.929352 0.921143 0.557037
0.357971 0.155670 0.258331
0.378998 0.213074 0.301636
0.460999 0.278656 0.353119
0.596191 0.350250 0.416382
0.806519 0.408966 0.434235
0.404388 0.265564 0.338745
0.389252 0.266388 0.339813
0.470795 0.318146 0.382172
0.606415 0.381775 0.441132
0.811859 0.433685 0.449402
0.476501 0.423981 0.443024
0.476959 0.427338 0.448212
0.500397 0.438965 0.464264
0.641815 0.491486 0.518982
0.832489 0.529633 0.510406
0.563416 0.623352 0.568604
0.570251 0.630829 0.576569
0.604858 0.653320 0.601593
0.699554 0.681427 0.633972
0.871429 0.704437 0.629059
0.654266 0.858612 0.625946
0.659363 0.861481 0.626770
0.685699 0.871735 0.632446
0.762787 0.890076 0.655243
0.925415 0.917572 0.709564
0.505524 0.219452 0.478943
0.498077 0.273407 0.510590
0.547943 0.332764 0.552460
0.650208 0.397034 0.604980
0.799652 0.466339 0.667297
0.529968 0.318451 0.539001
0.504791 0.319092 0.538239
0.551575 0.365173 0.572906
0.654297 0.422638 0.621338
0.804901 0.488037 0.681122
0.573822 0.461365 0.622498
0.567169 0.461212 0.623932
0.567383 0.464294 0.631073
0.671417 0.511200 0.674194
0.824707 0.566071 0.728333
0.636475 0.644653 0.723450
0.636841 0.645599 0.726074
0.649414 0.651215 0.736633
0.713226 0.672211 0.762177
0.863647 0.712585 0.807159
0.709229 0.853485 0.828857
0.712982 0.856323 0.832214
0.732880 0.866577 0.844421
0.794403 0.885223 0.866699
0.915588 0.907959 0.893890
